src/images/icons/email.svg

<svg fill="none" height="36" viewBox="0 0 48 36" width="48" xmlns="http://www.w3.org/2000/svg"><g fill="#10182e"><path d="m46.6897 33-16.57-14.9c-.0731-.0665-.1315-.1476-.1714-.238-.04-.0904-.0606-.1882-.0606-.287s.0206-.1966.0606-.287c.0399-.0904.0983-.1715.1714-.238l16.57-14.9c.1005-.09105.2253-.15096.3592-.17242.1339-.02147.2712-.00358.3951.0515s.2292.14498.303.25876.1129.24655.1127.38216v29.82c-.0017.1348-.0422.2662-.1168.3785-.0745.1123-.1799.2006-.3034.2545-.1236.0538-.2601.0709-.3931.0491-.1329-.0218-.2568-.0816-.3567-.1721zm-13.56-14.9 11.55 10.4c.0992.09.2222.1496.3543.1718s.2678.006.391-.0466c.1232-.0527.2287-.1396.304-.2504s.1172-.2409.1207-.3748v-20.82c.0002-.13562-.0389-.26838-.1127-.38216s-.1791-.20368-.303-.25876-.2612-.07297-.3951-.0515c-.1339.02146-.2587.08136-.3592.17242l-11.55 10.39c-.0731.0665-.1315.1476-.1714.238-.04.0904-.0606.1882-.0606.287s.0206.1966.0606.287c.0399.0904.0983.1715.1714.238z"/><path d="m45.0005 35.15h-42.17997c-.14167.0003-.28008-.0425-.39695-.1225-.11688-.0801-.20672-.1937-.25764-.3259-.05093-.1322-.06055-.2767-.02759-.4145s.10694-.2623.21218-.3571l16.64997-14.93c.1288-.1167.2963-.1813.47-.1813.1738 0 .3413.0646.47.1813l3.57 3.22c.1288.1166.2963.1812.47.1812.1738 0 .3413-.0646.47-.1812l3.55-3.22c.1288-.1167.2963-.1813.47-.1813.1738 0 .3413.0646.47.1813l16.6 14.94c.1071.0994.1803.2298.2095.3729.0292.1432.0129.2919-.0466.4253-.0596.1334-.1593.2448-.2854.3186-.126.0739-.272.1065-.4175.0932zm-36.99997-2h31.79997c.1417.0003.2801-.0425.397-.1225.1169-.0801.2067-.1937.2576-.3259s.0606-.2767.0276-.4145-.1069-.2623-.2122-.3571l-11.36-10.24c-.1287-.1167-.2962-.1813-.47-.1813-.1737 0-.3412.0646-.47.1813l-3.57 3.22c-.1287.1166-.2962.1812-.47.1812-.1737 0-.3412-.0646-.47-.1812l-3.57-3.22c-.1287-.1167-.2962-.1813-.47-.1813-.1737 0-.3412.0646-.47.1813l-11.35997 10.23c-.10524.0948-.17922.2193-.21218.3571s-.02334.2823.02759.4145c.05092.1322.14076.2458.25764.3259.11687.0801.25529.1228.39695.1225z"/><path d="m23.4605 20.23-21.10997-19.01c-.10524-.09483-.17922-.21937-.21218-.357143-.03296-.137776-.02334-.282309.02759-.414501.05092-.132192.14076-.245822.25764-.325875.11687-.0800526.25528-.12276023.39695-.12247963h42.17997c.1417-.0002806.2801.04242703.397.12247963.1169.080053.2067.193683.2576.325875s.0606.276725.0276.414501c-.033.137773-.1069.262313-.2122.357143l-21.11 19c-.1249.1072-.2836.167-.4482.1688-.1645.0019-.3245-.0544-.4518-.1588zm-15.86997-17 15.86997 14.29c.1288.1167.2963.1813.47.1813.1738 0 .3413-.0646.47-.1813l15.87-14.29c.109-.094.1864-.21933.2216-.3589.0352-.13958.0266-.28661-.0248-.42108-.0514-.13446-.143-.24982-.2623-.33034-.1193-.08053-.2606-.12232-.4045-.11968h-31.73997c-.14392-.00264-.28516.03915-.40448.11968-.11931.08052-.21089.19588-.26227.33034-.05138.13447-.06006.2815-.02485.42108.0352.13957.11259.2649.2216.3589z"/><path d="m.00000112 32.49v-29.82c-.00024266-.13561.03891498-.26838.11271288-.38216.073799-.11378.17906-.20368.302989-.25876s.26119-.07297.395098-.0515c.133909.02146.258699.08137.359199.17242l16.56 14.9c.0731.0665.1315.1476.1714.238.04.0904.0606.1882.0606.287s-.0206.1966-.0606.287c-.0399.0904-.0983.1715-.1714.238l-16.56 14.9c-.09987.0905-.223743.1503-.356743.1721s-.26947.0047-.39302-.0491c-.12355-.0539-.228925-.1422-.303471-.2545-.0745449-.1123-.11508988-.2437-.11676488-.3785zm1.99999888-25.31v20.82c-.00221.1365.03553.2706.10856.3859s.17818.2067.30251.2631c.12432.0563.2624.075.39724.0539s.26056-.0812.36169-.1729l11.56-10.43c.0731-.0665.1315-.1476.1714-.238.04-.0904.0606-.1882.0606-.287s-.0206-.1966-.0606-.287c-.0399-.0904-.0983-.1715-.1714-.238l-11.55-10.39c-.10012-.09435-.22583-.15711-.36142-.18043s-.27504-.00617-.40094.04931-.23265.14683-.30693.26263-.11279.25093-.11071.38849z"/></g></svg>

<svg width="48" height="36" viewBox="0 0 48 36" fill="none" xmlns="http://www.w3.org/2000/svg">
<path d="M46.6897 33L30.1197 18.1C30.0466 18.0335 29.9882 17.9524 29.9483 17.862C29.9083 17.7716 29.8877 17.6738 29.8877 17.575C29.8877 17.4762 29.9083 17.3784 29.9483 17.288C29.9882 17.1976 30.0466 17.1165 30.1197 17.05L46.6897 2.15C46.7902 2.05895 46.915 1.99904 47.0489 1.97758C47.1828 1.95611 47.3201 1.974 47.444 2.02908C47.5679 2.08416 47.6732 2.17406 47.747 2.28784C47.8208 2.40162 47.8599 2.53439 47.8597 2.67V32.49C47.858 32.6248 47.8175 32.7562 47.7429 32.8685C47.6684 32.9808 47.563 33.0691 47.4395 33.123C47.3159 33.1768 47.1794 33.1939 47.0464 33.1721C46.9135 33.1503 46.7896 33.0905 46.6897 33ZM33.1297 18.1L44.6797 28.5C44.7789 28.59 44.9019 28.6496 45.034 28.6718C45.1661 28.694 45.3018 28.6778 45.425 28.6252C45.5482 28.5725 45.6537 28.4856 45.729 28.3748C45.8043 28.264 45.8462 28.1339 45.8497 28V7.18C45.8499 7.04438 45.8108 6.91162 45.737 6.79784C45.6632 6.68406 45.5579 6.59416 45.434 6.53908C45.3101 6.484 45.1728 6.46611 45.0389 6.48758C44.905 6.50904 44.7802 6.56894 44.6797 6.66L33.1297 17.05C33.0566 17.1165 32.9982 17.1976 32.9583 17.288C32.9183 17.3784 32.8977 17.4762 32.8977 17.575C32.8977 17.6738 32.9183 17.7716 32.9583 17.862C32.9982 17.9524 33.0566 18.0335 33.1297 18.1Z" fill="#10182E"/>
<path d="M45.0005 35.15H2.82053C2.67886 35.1503 2.54045 35.1075 2.42358 35.0275C2.3067 34.9474 2.21686 34.8338 2.16594 34.7016C2.11501 34.5694 2.10539 34.4249 2.13835 34.2871C2.17131 34.1493 2.24529 34.0248 2.35053 33.93L19.0005 19C19.1293 18.8833 19.2968 18.8187 19.4705 18.8187C19.6443 18.8187 19.8118 18.8833 19.9405 19L23.5105 22.22C23.6393 22.3366 23.8068 22.4012 23.9805 22.4012C24.1543 22.4012 24.3218 22.3366 24.4505 22.22L28.0005 19C28.1293 18.8833 28.2968 18.8187 28.4705 18.8187C28.6443 18.8187 28.8118 18.8833 28.9405 19L45.5405 33.94C45.6476 34.0394 45.7208 34.1698 45.75 34.3129C45.7792 34.4561 45.7629 34.6048 45.7034 34.7382C45.6438 34.8716 45.5441 34.983 45.418 35.0568C45.292 35.1307 45.146 35.1633 45.0005 35.15ZM8.00053 33.15H39.8005C39.9422 33.1503 40.0806 33.1075 40.1975 33.0275C40.3144 32.9474 40.4042 32.8338 40.4551 32.7016C40.506 32.5694 40.5157 32.4249 40.4827 32.2871C40.4497 32.1493 40.3758 32.0248 40.2705 31.93L28.9105 21.69C28.7818 21.5733 28.6143 21.5087 28.4405 21.5087C28.2668 21.5087 28.0993 21.5733 27.9705 21.69L24.4005 24.91C24.2718 25.0266 24.1043 25.0912 23.9305 25.0912C23.7568 25.0912 23.5893 25.0266 23.4605 24.91L19.8905 21.69C19.7618 21.5733 19.5943 21.5087 19.4205 21.5087C19.2468 21.5087 19.0793 21.5733 18.9505 21.69L7.59053 31.92C7.48529 32.0148 7.41131 32.1393 7.37835 32.2771C7.34539 32.4149 7.35501 32.5594 7.40594 32.6916C7.45686 32.8238 7.5467 32.9374 7.66358 33.0175C7.78045 33.0976 7.91887 33.1403 8.06053 33.14L8.00053 33.15Z" fill="#10182E"/>
<path d="M23.4605 20.23L2.35053 1.22C2.24529 1.12517 2.17131 1.00063 2.13835 0.862857C2.10539 0.725081 2.11501 0.580548 2.16594 0.448356C2.21686 0.316164 2.3067 0.202534 2.42358 0.122481C2.54045 0.0424284 2.67886 -0.000279228 2.82053 1.3739e-06H45.0005C45.1422 -0.000279228 45.2806 0.0424284 45.3975 0.122481C45.5144 0.202534 45.6042 0.316164 45.6551 0.448356C45.706 0.580548 45.7157 0.725081 45.6827 0.862857C45.6497 1.00063 45.5758 1.12517 45.4705 1.22L24.3605 20.22C24.2356 20.3272 24.0769 20.387 23.9123 20.3888C23.7478 20.3907 23.5878 20.3344 23.4605 20.23ZM7.59053 3.23L23.4605 17.52C23.5893 17.6367 23.7568 17.7013 23.9305 17.7013C24.1043 17.7013 24.2718 17.6367 24.4005 17.52L40.2705 3.23C40.3795 3.136 40.4569 3.01067 40.4921 2.8711C40.5273 2.73152 40.5187 2.58449 40.4673 2.45002C40.4159 2.31556 40.3243 2.2002 40.205 2.11968C40.0857 2.03915 39.9444 1.99736 39.8005 2H8.06053C7.91661 1.99736 7.77537 2.03915 7.65605 2.11968C7.53674 2.2002 7.44516 2.31556 7.39378 2.45002C7.3424 2.58449 7.33372 2.73152 7.36893 2.8711C7.40413 3.01067 7.48152 3.136 7.59053 3.23Z" fill="#10182E"/>
<path d="M1.12105e-06 32.49V2.67C-0.000241542 2.53439 0.0389161 2.40162 0.112714 2.28784C0.186513 2.17406 0.291774 2.08416 0.415703 2.02908C0.539632 1.974 0.676893 1.95611 0.810801 1.97758C0.94471 1.99904 1.0695 2.05895 1.17 2.15L17.73 17.05C17.8031 17.1165 17.8615 17.1976 17.9014 17.288C17.9414 17.3784 17.962 17.4762 17.962 17.575C17.962 17.6738 17.9414 17.7716 17.9014 17.862C17.8615 17.9524 17.8031 18.0335 17.73 18.1L1.17 33C1.07013 33.0905 0.946257 33.1503 0.813257 33.1721C0.680257 33.1939 0.543787 33.1768 0.420237 33.123C0.296687 33.0691 0.191312 32.9808 0.116766 32.8685C0.0422211 32.7562 0.00167612 32.6248 1.12105e-06 32.49ZM2 7.18V28C1.99779 28.1365 2.03553 28.2706 2.10856 28.3859C2.18159 28.5012 2.28674 28.5926 2.41107 28.649C2.53539 28.7053 2.67347 28.724 2.80831 28.7029C2.94315 28.6818 3.06887 28.6217 3.17 28.53L14.73 18.1C14.8031 18.0335 14.8615 17.9524 14.9014 17.862C14.9414 17.7716 14.962 17.6738 14.962 17.575C14.962 17.4762 14.9414 17.3784 14.9014 17.288C14.8615 17.1976 14.8031 17.1165 14.73 17.05L3.18 6.66C3.07988 6.56565 2.95417 6.50289 2.81858 6.47957C2.68299 6.45625 2.54354 6.4734 2.41764 6.52888C2.29174 6.58436 2.18499 6.67571 2.11071 6.79151C2.03643 6.90731 1.99792 7.04244 2 7.18Z" fill="#10182E"/>
</svg>
